X:1
T:Christ Is Risen!
T:Christ Is Risen!
T:L. E. M.
T:Harriet McEwen Kimball, 1891
T:Public Domain Courtesy of the Cyber Hymnal™
T:Public Domain Courtesy of the Cyber Hymnal™
C:L. E. M.
Z:Public Domain
Z:Courtesy of the Cyber Hymnal™
%%score ( 1 2 ) ( 3 4 )
L:1/8
Q:1/4=102
M:3/8
K:Ab
V:1 treble 
V:2 treble 
V:3 bass 
V:4 bass 
V:1
 [Ec]2 [Ec] | (BA)[DF] | [CE]2 [CF] | [CE]2 [CA] | [Ec]2 [Ec] | (cB)[CA] | [DB]2 [Ec] | [DB]2 z | %8
w: 1.~Christ is|ris- * en!|Christ is|ris- en!|Con- quered|death * and|all His|foes!|
w: 2.~Ve- ry|God, * He|stooped to|suf- fer|Keen- est|sor- * rows,|sharp- est|pains;|
w: 3.~Bless- èd|they, * the|saints and|mar- tyrs,|Fore- most|in * the|Chur- ch’s|van,|
w: 4.~Lift the|cross * to-|day in|tri- umph,|Lift His|won- * drous|sym- bol|high!|
w: 5.~Back- ward,|for- * ward,|o’er the|ag- es,|How its|rays * un-|earth- ly|stream,|
 [Ec]2 [Ec] | (BA)[DF] | [CE]2 [CF] | [CE]2 [CA] | (EA)[Ec] | [Fe]2 [Fd] | [Ec]2 [DB] | [CA]3 | %16
w: Cru- ci-|fied * and|dead and|bur- ied,|Ve- * ry|man, as|man He|rose.|
w: Ve- ry|man, * en-|throned in|glo- ry,|Now * as|King of|kings He|reigns.|
w: Vir- gin|souls * of|maid or|ma- tron,|Babe, * and|youth, and|hoar- y|man.|
w: Stand- ard|that * hath|led its|le- gions|On * to|ho- ly|vic- to-|ry.|
w: From e-|tern- * i-|ty its|splen- dors,|To * e-|ter- ni-|ty shall|gleam.|
 [EB]2 [Ec] | [Ed]2 [Ec] | [EB]2 [E=A] | [EB]2 [E=A] | [EB]2 [Ec] | [Ed]2 [Ec] | [EB]2 [E=A] | %23
w: Al- le-|lu- ia!|Al- le-|lu- ia!|He for|us the|cross en-|
w: Al- le-|lu- ia!|Al- le-|lu- ia!|Bless- èd|they who|fol- low|
w: Al- le-|lu- ia!|Al- le-|lu- ia!|Blessed be|all the|faith- ful|
w: Al- le-|lu- ia!|Al- le-|lu- ia!|Once of|death and|shame the|
w: Al- le-|lu- ia!|Al- le-|lu- ia!|Lift the|match- less|sym- bol|
 ([EB]2 =B) | [Ec]2 [Ec] | (BA)[DF] | [CE]2 [CF] | [CE]2 [CA] | (EA)[Ec] | [Fe]2 [Fd] | %30
w: dured, *|And the|bit- * ter|shame des-|pis- ing,|Life, * im-|mor- tal|
w: on, *|Who by|rack, * or|sword, or|pri- son,|Share * the|crown that|
w: throng *|Strong in|Him * to|fight and|con- quer,|Press- * ing|still His|
w: sign, *|Now of|glo- * ry|ne- ver|e- qualed,|See * the|cross of|
w: high; *|With the|re- * sur-|rect- ion|glo- ry,|Kind- * ling|earth, and|
 [Ec]2 [DB] | [CA]3 |] %32
w: life, se-|cured.|
w: He hath|won.|
w: way a-|long.|
w: Je- sus|shine!|
w: sea, and|sky!|
V:2
 x3 | F2 x | x3 | x3 | x3 | C2 x | x3 | x3 | x3 | F2 x | x3 | x3 | E2 x | x3 | x3 | x3 | x3 | x3 | %18
 x3 | x3 | x3 | x3 | x3 | x3 | x3 | F2 x | x3 | x3 | E2 x | x3 | x3 | x3 |] %32
V:3
 [A,,E,A,]2 [A,,E,A,] | [D,F,A,]2 [D,F,A,] | [A,,E,A,]2 [A,,E,A,] | [A,,E,A,]2 [A,,E,A,] | %4
 [A,,E,A,]2 [A,,E,A,] | [F,A,]2 [F,A,] | G,2 A, | [E,G,]2 z | [A,,E,A,]2 [A,,E,A,] | %9
 [D,F,A,]2 [D,F,A,] | [A,,E,A,]2 [A,,E,A,] | [A,,E,A,]2 [A,,E,A,] | [C,A,]2 [C,A,] | %13
 [D,B,]2 [D,B,] | [E,A,]2 [E,G,] | [A,,A,]3 | G,2 A, | B,2 A, | G,2 ^F, | G,2 ^F, | G,2 A, | %21
 B,2 A, | G,2 ^F, | [E,G,]2 z | [A,,E,A,]2 [A,,E,A,] | [D,F,A,]2 [D,F,A,] | [A,,E,A,]2 [A,,E,A,] | %27
 [A,,E,A,]2 [A,,E,A,] | [C,A,]2 [C,A,] | [D,B,]2 [D,B,] | [E,A,]2 [E,G,] | [A,,A,]3 |] %32
V:4
 x3 | x3 | x3 | x3 | x3 | x3 | E,3 | x3 | x3 | x3 | x3 | x3 | x3 | x3 | x3 | x3 | E,3- | E,3- | %18
 E,3- | E,3- | E,3- | E,3- | E,3- | x3 | x3 | x3 | x3 | x3 | x3 | x3 | x3 | x3 |] %32

